X:1
T:Naima
C:1959 - John Coltrane
Z:www.realbook.site
L:1/8
M:4/4
I:linebreak $
K:Ab
V:1 treble nm=" " snm=" "
V:1
|:"Bbm" c6- (3cBe |"Ebm" F6 z2 |"B7#11" A4"A7#11" _G2- (3GEG |"Abmaj7" E6 z2 :|$"Bmaj7" B6- (3BBB | %5
"Bb7b9#11" G6 (3z EF |"Bmaj7" B6- (3BBB |"Bb7b9" G6 (3z FE |$"E7#11" d6 (3dBd |"Bmaj7" B6 (3z _GB | %10
"Fm" =G6- (3GEG |"Gb7#11" E6 z2 ||$"Bbm" c6- (3cBe |"Ebm" F6 z2 |"B7#11" A4"A7#11" _G2- (3GEG | %15
"Abmaj7" E6 z2 |] %16

